X:0
T:Careful with the Mixer
M:C|
C:© Paul Gitlitz 2007
R:Swing
N: The tailgate party at Fiddle Tunes was a fun meter in the red event.
K:G
"G"dg2g- gdgd|"A/C#"^cg2g- gcgc |"C"=cg2g- gcgc|"G"BcdB G2B2|!
"G"dg2g- gdgd|"A/C#"^cg2g- gcgc |"C"=cg2g- gcgc|"G"BcdB G4:|!
|:"G"gb2a- agfe|"C"fc2c- c4|"D7"fa2g- gfef|"Em"eB2B- B4|!
"G"GBdg- ggfg|"C"fc2c- c4|1"D7"cdef- ffef|"Em"eB2B- B4:|2"C"eg2e- "D"edBA|"G"G8|]
